!!!OTL: 102. Hopke
!!!Genre:	Hopke
!!!Mode:	Freygish
!!!Listening/dance:	dance
!!!:	*F:; *C:
!!!One_Mode:	no
**kern
*thru
*part1
*staff1
*clefG2
*>A
*k[b-e-a-]
*C:
=19!|:
*k[]
!LO:TX:a:i:t=C-major
(>4.ccT
8g)
=20
4.ccT
8g
=21
(>8.ccLT
16gJk)
(>8.ddTL
16gJk)
=22
(>8.eetL
16gJk)
(>8.ffTL
16gJk)
=23
16ggLL
16g
16ff
16gJJ
16eeLL
16gJ
16dd
16gJ
=24
16ccLL
16b
16cc
16eeJJ
8ddL
16b
16gJk
=25
16ccLL
16g
16cc
16eeJJ
16ddLL
16g
16dd
16ffJJ
=26
16eeLL
16cc
16ee
16ggJJ
!!!End-Modulation
!!!Begin-Modulation
*-
